_includes/icons/color-mp3.svg

<svg fill="#666" height="50" viewBox="0 0 48 48" width="50" xmlns="http://www.w3.org/2000/svg"><path d="m40 45h-32v-42h22l10 10z" fill="#ffc107"/><path d="m38.5 14h-9.5v-9.5z" fill="#fff3e0"/><g fill="#c47205"><path d="m14.425781 23.046875 1.878907 7.199219 1.875-7.199219h2.625v9.953125h-2.019532v-2.691406l.1875-4.152344-1.992187 6.84375h-1.367188l-1.988281-6.84375.183594 4.148438v2.695312h-2.007813v-9.953125z"/><path d="m24.425781 29.5v3.5h-2.011718v-9.953125h3.394531c.980469 0 1.769531.304688 2.351562.917969.585938.609375.878907 1.402344.878907 2.378906 0 .972656-.289063 1.742188-.867188 2.308594s-1.382812.847656-2.40625.847656zm0-1.675781h1.382813c.382812 0 .679687-.125.886719-.375.210937-.25.316406-.613281.316406-1.09375 0-.496094-.109375-.890625-.324219-1.1875-.210937-.292969-.5-.441406-.859375-.445313h-1.402344z"/><path d="m31.953125 27.140625h.9375c.351563 0 .613281-.125.78125-.371094.167969-.25.25-.585937.25-1 0-.398437-.085937-.710937-.257812-.933593-.171875-.222657-.398438-.332032-.6875-.332032-.269532 0-.488282.105469-.660157.316407-.171875.210937-.253906.480468-.253906.804687h-1.9375c0-.519531.121094-.984375.359375-1.398437.238281-.414063.574219-.734375 1.003906-.96875.433594-.230469.910157-.347657 1.433594-.347657.917969 0 1.632813.253907 2.152344.757813.519531.507812.78125 1.199219.78125 2.078125 0 .453125-.117188.871094-.351563 1.253906-.238281.386719-.546875.683594-.929687.886719.472656.199219.820312.5 1.050781.902344.230469.402343.34375.875.34375 1.421875 0 .882812-.28125 1.59375-.84375 2.125-.5625.535156-1.300781.800781-2.21875.800781-.851562 0-1.542969-.261719-2.074219-.789063-.53125-.527343-.796875-1.21875-.796875-2.074218h1.9375c0 .359375.09375.660156.277344.90625.1875.242187.425781.363281.710938.363281.335937 0 .597656-.121094.792968-.371094.191407-.246094.289063-.574219.289063-.988281 0-.984375-.382813-1.480469-1.144531-1.484375h-.949219v-1.558594z"/></g></svg>

<svg xmlns="http://www.w3.org/2000/svg" viewBox="0 0 48 48" width="50" height="50" fill="#666"><path d="M 40 45 L 8 45 L 8 3 L 30 3 L 40 13 Z" fill="#ffc107"/><path d="M 38.5 14 L 29 14 L 29 4.5 Z" fill="#fff3e0"/><path d="M 14.425781 23.046875 L 16.304688 30.246094 L 18.179688 23.046875 L 20.804688 23.046875 L 20.804688 33 L 18.785156 33 L 18.785156 30.308594 L 18.972656 26.15625 L 16.980469 33 L 15.613281 33 L 13.625 26.15625 L 13.808594 30.304688 L 13.808594 33 L 11.800781 33 L 11.800781 23.046875 Z" fill="#c47205"/><path d="M 24.425781 29.5 L 24.425781 33 L 22.414063 33 L 22.414063 23.046875 L 25.808594 23.046875 C 26.789063 23.046875 27.578125 23.351563 28.160156 23.964844 C 28.746094 24.574219 29.039063 25.367188 29.039063 26.34375 C 29.039063 27.316406 28.75 28.085938 28.171875 28.652344 C 27.59375 29.21875 26.789063 29.5 25.765625 29.5 Z M 24.425781 27.824219 L 25.808594 27.824219 C 26.191406 27.824219 26.488281 27.699219 26.695313 27.449219 C 26.90625 27.199219 27.011719 26.835938 27.011719 26.355469 C 27.011719 25.859375 26.902344 25.464844 26.6875 25.167969 C 26.476563 24.875 26.1875 24.726563 25.828125 24.722656 L 24.425781 24.722656 Z" fill="#c47205"/><path d="M 31.953125 27.140625 L 32.890625 27.140625 C 33.242188 27.140625 33.503906 27.015625 33.671875 26.769531 C 33.839844 26.519531 33.921875 26.183594 33.921875 25.769531 C 33.921875 25.371094 33.835938 25.058594 33.664063 24.835938 C 33.492188 24.613281 33.265625 24.503906 32.976563 24.503906 C 32.707031 24.503906 32.488281 24.609375 32.316406 24.820313 C 32.144531 25.03125 32.0625 25.300781 32.0625 25.625 L 30.125 25.625 C 30.125 25.105469 30.246094 24.640625 30.484375 24.226563 C 30.722656 23.8125 31.058594 23.492188 31.488281 23.257813 C 31.921875 23.027344 32.398438 22.910156 32.921875 22.910156 C 33.839844 22.910156 34.554688 23.164063 35.074219 23.667969 C 35.59375 24.175781 35.855469 24.867188 35.855469 25.746094 C 35.855469 26.199219 35.738281 26.617188 35.503906 27 C 35.265625 27.386719 34.957031 27.683594 34.574219 27.886719 C 35.046875 28.085938 35.394531 28.386719 35.625 28.789063 C 35.855469 29.191406 35.96875 29.664063 35.96875 30.210938 C 35.96875 31.09375 35.6875 31.804688 35.125 32.335938 C 34.5625 32.871094 33.824219 33.136719 32.90625 33.136719 C 32.054688 33.136719 31.363281 32.875 30.832031 32.347656 C 30.300781 31.820313 30.035156 31.128906 30.035156 30.273438 L 31.972656 30.273438 C 31.972656 30.632813 32.066406 30.933594 32.25 31.179688 C 32.4375 31.421875 32.675781 31.542969 32.960938 31.542969 C 33.296875 31.542969 33.558594 31.421875 33.753906 31.171875 C 33.945313 30.925781 34.042969 30.597656 34.042969 30.183594 C 34.042969 29.199219 33.660156 28.703125 32.898438 28.699219 L 31.949219 28.699219 L 31.949219 27.140625 Z" fill="#c47205"/></svg>
